X:29
T:Arkansas Traveler
S:American Veteran Fifer #29
M:2/4
L:1/16
Q:1/8=180
K:D 
%%MIDI program 72
%%MIDI transpose 8
%%MIDI ratio 3 1
|: "^As Originally Written" A2 | dfed B2B2 | A2A2 d4 | e2e2 f2f2 | efed B2A2 |
dfed B2B2 | A2A2 d4 | dcdA BdAG | fdec d2 :|
|: fg | agfa gfeg | fedf ecA2 | dcdf edeg | fefa e2fg |
agfa gfeg | fedf ecA2 | dcdA BdAG | Fdec d2 :|


